X:15
T:42 Pound Cheque, The
T:42 Pound Check, The
T:42 Pound Float, The
T:Forty-two Pound Cheque, The
T:Forty-two Pound Check, The
T:Forty-Two Pound Float, The
R:polka
Z:id:hn-polka-15
M:2/4
L:1/8
K:D
Ad Bd/B/|AD FA|GE BE|A>G FD|Ad Bd/B/|AD FA|GE A>G|FD D2:|
|:Ad fe/f/|gf ed|cA eA|e>d cA|Ad fe/f/|gf e>d|cA Bc|d2 d2:|
<end>
<start>
